!!!!SEGMENT: pl-cz--ii-240--009_zeidler-jozef-stabat-mater-quando-corpus-morietur.krn
!!!id: 18xx:311
!!!COM: Zeidler, Józef
!!!OTL: Stabat Mater - Quando corpus morietur
!!!PDT: 1840
!!!SMS-siglum: PL-CZ
!!!SMS-shelfmark: II-240
!!!NIFC-rismID:
!!!URL-scan: http://repozytorium.nifc.pl/skany/pl-cz-nut--ii-240
!!!ONB-nifc: UWAGA: części: Stabat Mater, Quae merebat, Quis est homo, Quis non posset, Eja Mater, Fac me vere, Virgo virginum praeclara, Inflammatus, Quando corpus morietur, Amen
!!!ENC: Anna Matuszewska
!!!END: 2020-04-13
**kern	**fb	**dynam	**kern	**text	**dynam	**kern	**text	**dynam	**kern	**text	**dynam	**kern	**text	**dynam	**kern	**dynam	**kern	**dynam	**kern	**dynam	**kern	**dynam	**kern	**kern	**dynam	**kern	**dynam
*part12	*	*part12	*part11	*part11	*part11	*part10	*part10	*part10	*part9	*part9	*part9	*part8	*part8	*part8	*part7	*part7	*part6	*part6	*part5	*part5	*part4	*part4	*part3	*part2	*part2	*part1	*part1
*staff12	*	*	*staff11	*staff11	*	*staff10	*staff10	*	*staff9	*staff9	*	*staff8	*staff8	*	*staff7	*	*staff6	*	*staff5	*	*staff4	*	*staff3	*staff2	*	*staff1	*
*I"Organ.	*	*	*I"Bas.	*	*	*I"Tenor.	*	*	*I"Alt.	*	*	*I"Cant.	*	*	*I"Viola	*	*I"Violin 2do	*	*I"Violin 1mo	*	*I"Corno 2do in F.	*	*I"Corno 1mo in F.	*I"Clarinetto 2do. in B.	*	*I"Clarinetto 1mo in B.	*
*I'Org.	*	*	*I'B.	*	*	*I'T.	*	*	*I'A.	*	*	*I'S.	*	*	*I'V-la	*	*I'V-no	*	*I'V-no 1	*	*I'C. in F	*	*I'C. in F	*I'Cl. in B♭	*	*I'Cl. in B♭	*
*clefF4	*	*	*clefF4	*	*	*clefC4	*	*	*clefC3	*	*	*clefC1	*	*	*clefC3	*	*clefG2	*	*clefG2	*	*clefG2	*	*clefG2	*clefG2	*	*clefG2	*
*	*	*	*	*	*	*	*	*	*	*	*	*	*	*	*	*	*	*	*	*	*ITrd4c7	*	*ITrd4c7	*ITrd1c2	*	*ITrd1c2	*
*k[b-]	*	*	*k[b-]	*	*	*k[b-]	*	*	*k[b-]	*	*	*k[b-]	*	*	*k[b-]	*	*k[b-]	*	*k[b-]	*	*k[b-]	*	*k[b-]	*k[b-]	*	*k[b-]	*
*M4/4	*	*	*M4/4	*	*	*M4/4	*	*	*M4/4	*	*	*M4/4	*	*	*M4/4	*	*M4/4	*	*M4/4	*	*M4/4	*	*M4/4	*M4/4	*	*M4/4	*
*met(c)	*	*	*met(c)	*	*	*met(c)	*	*	*met(c)	*	*	*met(c)	*	*	*met(c)	*	*met(c)	*	*met(c)	*	*met(c)	*	*met(c)	*met(c)	*	*met(c)	*
=1	=1	=1	=1	=1	=1	=1	=1	=1	=1	=1	=1	=1	=1	=1	=1	=1	=1	=1	=1	=1	=1	=1	=1	=1	=1	=1	=1
!LO:TX:a:t=problem:wszystkie nuty mają laski z prawej strony	!	!	!	!	!	!	!	!	!	!	!	!	!	!	!LO:TX:a:t=problem:wszystkie nuty mają laski z prawej strony	!	!	!	!	!	!	!	!	!	!	!LO:TX:a:t=problem: pauzy 00r	!
!LO:TX:b:i:t=Cres	!	!	!LO:TX:a:t=problem: pauzy 00r	!	!	!LO:TX:a:t=problem: pauzy 00r	!	!	!LO:TX:a:t=problem: pauzy 00r	!	!	!LO:TX:a:t=problem: pauzy 00r	!	!	!LO:TX:b:i:t=Cres	!	!LO:TX:b:i:t=Cres	!	!LO:TX:b:i:t=Cres	!	!LO:TX:a:t=problem: pauzy 00r adnotacja "4"	!	!LO:TX:a:t=problem: pauzy 00r adnotacja "4"	!LO:TX:a:t=problem: pauzy 00r	!	!LO:TX:a:B:t=Adagio	!
!LO:TX:a:t=Adagio	!	!	!LO:TX:a:t=Adagio	!	!	!LO:TX:a:t=Adagio	!	!	!LO:TX:a:t=Adagio	!	!	!LO:TX:a:t=Adagio	!	!	!LO:TX:a:t=Adagio	!	!LO:TX:a:t=Adagio	!	!LO:TX:a:t=Adagio	!	!LO:TX:a:t=Adagio	!	!LO:TX:a:t=Adagio	!LO:TX:a:t=Adagio	!	!	!
*8\right	*	*	*	*	*	*	*	*	*	*	*	*	*	*	*8\right	*	*8\right	*	*16\right	*	*	*	*	*	*	*	*
8D\	.	.	1r	.	.	1r	.	.	1r	.	.	1r	.	.	8f\	.	8a/	.	16r	.	1r	.	1r	1r	.	1r	.
.	.	.	.	.	.	.	.	.	.	.	.	.	.	.	.	.	.	.	(16aa\LL	.	.	.	.	.	.	.	.
8r	.	.	.	.	.	.	.	.	.	.	.	.	.	.	8r	.	8r	.	16ff\	.	.	.	.	.	.	.	.
.	.	.	.	.	.	.	.	.	.	.	.	.	.	.	.	.	.	.	16dd\JJ)	.	.	.	.	.	.	.	.
8D\	.	.	.	.	.	.	.	.	.	.	.	.	.	.	8f\	.	8a/	.	16r	.	.	.	.	.	.	.	.
.	.	.	.	.	.	.	.	.	.	.	.	.	.	.	.	.	.	.	(16aa\LL	.	.	.	.	.	.	.	.
8r	.	.	.	.	.	.	.	.	.	.	.	.	.	.	8r	.	8r	.	16ff\	.	.	.	.	.	.	.	.
.	.	.	.	.	.	.	.	.	.	.	.	.	.	.	.	.	.	.	16dd\JJ)	.	.	.	.	.	.	.	.
8E\	6|	.	.	.	.	.	.	.	.	.	.	.	.	.	8g\	.	8a/	.	16r	.	.	.	.	.	.	.	.
.	.	.	.	.	.	.	.	.	.	.	.	.	.	.	.	.	.	.	(16gg\LL	.	.	.	.	.	.	.	.
8r	.	.	.	.	.	.	.	.	.	.	.	.	.	.	8r	.	8r	.	16ee\	.	.	.	.	.	.	.	.
.	.	.	.	.	.	.	.	.	.	.	.	.	.	.	.	.	.	.	16cc#X\JJ)	.	.	.	.	.	.	.	.
!	!	!	!	!	!	!	!	!	!	!	!	!	!	!	!	!	!	!	!LO:TX:a:t=problem: znak powtórzenia grupy	!	!	!	!	!	!	!	!
8E\	.	.	.	.	.	.	.	.	.	.	.	.	.	.	8g\	.	8a/	.	16r	.	.	.	.	.	.	.	.
.	.	.	.	.	.	.	.	.	.	.	.	.	.	.	.	.	.	.	(16gg\LL	.	.	.	.	.	.	.	.
8r	.	.	.	.	.	.	.	.	.	.	.	.	.	.	8r	.	8r	.	16ee\	.	.	.	.	.	.	.	.
.	.	.	.	.	.	.	.	.	.	.	.	.	.	.	.	.	.	.	16cc#X\JJ)	.	.	.	.	.	.	.	.
=2	=2	=2	=2	=2	=2	=2	=2	=2	=2	=2	=2	=2	=2	=2	=2	=2	=2	=2	=2	=2	=2	=2	=2	=2	=2	=2	=2
!	!	!	!	!	!	!	!	!	!	!	!	!	!	!	!	!	!LO:TX:a:t=problem:wszystkie nuty mają laski z prawej strony	!	!	!	!	!	!	!	!	!	!
8C#X/	7	.	1r	.	.	1r	.	.	1r	.	.	1r	.	.	8e\	.	8b-\	.	16r	.	1r	.	1r	1r	.	1r	.
.	.	.	.	.	.	.	.	.	.	.	.	.	.	.	.	.	.	.	16bb-\LL	.	.	.	.	.	.	.	.
8r	.	.	.	.	.	.	.	.	.	.	.	.	.	.	8r	.	8r	.	16gg\	.	.	.	.	.	.	.	.
.	.	.	.	.	.	.	.	.	.	.	.	.	.	.	.	.	.	.	16ee\JJ	.	.	.	.	.	.	.	.
!	!	!	!	!	!	!	!	!	!	!	!	!	!	!	!	!	!	!	!LO:TX:a:t=problem: znak powtórzenia grupy	!	!	!	!	!	!	!	!
8C#/	.	.	.	.	.	.	.	.	.	.	.	.	.	.	8e\	.	8b-\	.	16r	.	.	.	.	.	.	.	.
.	.	.	.	.	.	.	.	.	.	.	.	.	.	.	.	.	.	.	16bb-\LL	.	.	.	.	.	.	.	.
8r	.	.	.	.	.	.	.	.	.	.	.	.	.	.	8r	.	8r	.	16gg\	.	.	.	.	.	.	.	.
.	.	.	.	.	.	.	.	.	.	.	.	.	.	.	.	.	.	.	16ee\JJ	.	.	.	.	.	.	.	.
!	!	!	!	!	!	!	!	!	!	!	!	!	!	!	!	!	!	!	!LO:LB:g=original	!	!	!	!	!	!	!	!
8D/	.	.	.	.	.	.	.	.	.	.	.	.	.	.	8f\	.	8a\	.	16r	.	.	.	.	.	.	.	.
.	.	.	.	.	.	.	.	.	.	.	.	.	.	.	.	.	.	.	16aa\LL	.	.	.	.	.	.	.	.
8r	.	.	.	.	.	.	.	.	.	.	.	.	.	.	8r	.	8r	.	16ff\	.	.	.	.	.	.	.	.
.	.	.	.	.	.	.	.	.	.	.	.	.	.	.	.	.	.	.	16dd\JJ	.	.	.	.	.	.	.	.
!	!	!	!	!	!	!	!	!	!	!	!	!	!	!	!	!	!	!	!LO:TX:a:t=problem: znak powtórzenia grupy	!	!	!	!	!	!	!	!
8D/	.	.	.	.	.	.	.	.	.	.	.	.	.	.	8f\	.	8a\	.	16r	.	.	.	.	.	.	.	.
.	.	.	.	.	.	.	.	.	.	.	.	.	.	.	.	.	.	.	16aa\LL	.	.	.	.	.	.	.	.
8r	.	.	.	.	.	.	.	.	.	.	.	.	.	.	8r	.	8r	.	16ff\	.	.	.	.	.	.	.	.
.	.	.	.	.	.	.	.	.	.	.	.	.	.	.	.	.	.	.	16dd\JJ	.	.	.	.	.	.	.	.
=3	=3	=3	=3	=3	=3	=3	=3	=3	=3	=3	=3	=3	=3	=3	=3	=3	=3	=3	=3	=3	=3	=3	=3	=3	=3	=3	=3
!LO:LB:g=original	!	!	!	!	!	!	!	!	!	!	!	!	!	!	!	!	!	!	!	!	!	!	!	!	!	!	!
8BB-/	6|	.	1r	.	.	1r	.	.	1r	.	.	1r	.	.	8d\	.	8g#X/	.	16r	.	1r	.	1r	1r	.	1r	.
.	.	.	.	.	.	.	.	.	.	.	.	.	.	.	.	.	.	.	16ddd\LL	.	.	.	.	.	.	.	.
8r	.	.	.	.	.	.	.	.	.	.	.	.	.	.	8r	.	8r	.	16gg#X\	.	.	.	.	.	.	.	.
.	.	.	.	.	.	.	.	.	.	.	.	.	.	.	.	.	.	.	16dd\JJ	.	.	.	.	.	.	.	.
!	!	!	!	!	!	!	!	!	!	!	!	!	!	!	!	!	!	!	!LO:TX:a:t=problem: znak powtórzenia grupy	!	!	!	!	!	!	!	!
8BB-/	.	.	.	.	.	.	.	.	.	.	.	.	.	.	8d\	.	8g#/	.	16r	.	.	.	.	.	.	.	.
.	.	.	.	.	.	.	.	.	.	.	.	.	.	.	.	.	.	.	16ddd\LL	.	.	.	.	.	.	.	.
8r	.	.	.	.	.	.	.	.	.	.	.	.	.	.	8r	.	8r	.	16gg#X\	.	.	.	.	.	.	.	.
.	.	.	.	.	.	.	.	.	.	.	.	.	.	.	.	.	.	.	16dd\JJ	.	.	.	.	.	.	.	.
8AA/	#	.	.	.	.	.	.	.	.	.	.	.	.	.	8c#X\	.	8e/	.	16r	.	.	.	.	.	.	.	.
.	.	.	.	.	.	.	.	.	.	.	.	.	.	.	.	.	.	.	16ccc#X\LL	.	.	.	.	.	.	.	.
8r	.	.	.	.	.	.	.	.	.	.	.	.	.	.	8r	.	8r	.	16aa\	.	.	.	.	.	.	.	.
.	.	.	.	.	.	.	.	.	.	.	.	.	.	.	.	.	.	.	16ee\JJ	.	.	.	.	.	.	.	.
!	!	!	!	!	!	!	!	!	!	!	!	!	!	!	!	!	!	!	!LO:TX:a:t=problem: znak powtórzenia grupy	!	!	!	!	!	!	!	!
8AA/	.	.	.	.	.	.	.	.	.	.	.	.	.	.	8c#\	.	8e/	.	16r	.	.	.	.	.	.	.	.
.	.	.	.	.	.	.	.	.	.	.	.	.	.	.	.	.	.	.	16ccc#X\LL	.	.	.	.	.	.	.	.
8r	.	.	.	.	.	.	.	.	.	.	.	.	.	.	8r	.	8r	.	16aa\	.	.	.	.	.	.	.	.
.	.	.	.	.	.	.	.	.	.	.	.	.	.	.	.	.	.	.	16ee\JJ	.	.	.	.	.	.	.	.
=4	=4	=4	=4	=4	=4	=4	=4	=4	=4	=4	=4	=4	=4	=4	=4	=4	=4	=4	=4	=4	=4	=4	=4	=4	=4	=4	=4
!	!	!	!	!	!	!	!	!	!	!	!	!	!	!	!	!	!LO:LB:g=original	!	!	!	!	!	!	!	!	!	!
8BB-/	6|	.	1r	.	.	1r	.	.	1r	.	.	1r	.	.	8d\	.	8g#X/	.	16r	.	1r	.	1r	1r	.	1r	.
.	.	.	.	.	.	.	.	.	.	.	.	.	.	.	.	.	.	.	16ddd\LL	.	.	.	.	.	.	.	.
8r	.	.	.	.	.	.	.	.	.	.	.	.	.	.	8r	.	8r	.	16gg#X\	.	.	.	.	.	.	.	.
.	.	.	.	.	.	.	.	.	.	.	.	.	.	.	.	.	.	.	16dd\JJ	.	.	.	.	.	.	.	.
!	!	!	!	!	!	!	!	!	!	!	!	!	!	!	!	!	!	!	!LO:TX:a:t=problem: znak powtórzenia grupy	!	!	!	!	!	!	!	!
8BB-/	.	.	.	.	.	.	.	.	.	.	.	.	.	.	8d\	.	8g#/	.	16r	.	.	.	.	.	.	.	.
.	.	.	.	.	.	.	.	.	.	.	.	.	.	.	.	.	.	.	16ddd\LL	.	.	.	.	.	.	.	.
8r	.	.	.	.	.	.	.	.	.	.	.	.	.	.	8r	.	8r	.	16gg#X\	.	.	.	.	.	.	.	.
.	.	.	.	.	.	.	.	.	.	.	.	.	.	.	.	.	.	.	16dd\JJ	.	.	.	.	.	.	.	.
.	.	.	.	.	.	.	.	.	.	.	.	.	.	.	.	.	.	.	16qqdd/	.	.	.	.	.	.	.	.
4AA/	#	.	.	.	.	.	.	.	.	.	.	.	.	.	8.c#X\L	.	8.e/L	.	4cc#X\	.	.	.	.	.	.	.	.
*	*	*	*	*	*	*	*	*	*	*	*	*	*	*	*	*	*16\right	*	*	*	*	*	*	*	*	*	*
!	!	!	!	!	!	!	!	!	!	!	!	!	!	!	!	!	!	!LO:DY:a	!	!	!	!	!	!	!	!	!
.	.	.	.	.	.	.	.	.	.	.	.	.	.	.	16g'\Jk	>	16b-'/Jk	>	.	.	.	.	.	.	.	.	.
4r	.	.	.	.	.	.	.	.	.	.	.	.	.	.	16f'\LL	.	16a'/LL	.	4r	.	.	.	.	.	.	.	.
!	!	!	!	!	!	!	!	!	!	!	!	!	!	!	!	!	!LO:TX:a:t=sic:s=16gn	!	!	!	!	!	!	!	!	!	!
.	.	.	.	.	.	.	.	.	.	.	.	.	.	.	16e'\	.	16g#'/	.	.	.	.	.	.	.	.	.	.
.	.	.	.	.	.	.	.	.	.	.	.	.	.	.	16d'\	.	16f'/	.	.	.	.	.	.	.	.	.	.
.	.	.	.	.	.	.	.	.	.	.	.	.	.	.	16c#'\JJ	]]	16e'/JJ	]]	.	.	.	.	.	.	.	.	.
=5	=5	=5	=5	=5	=5	=5	=5	=5	=5	=5	=5	=5	=5	=5	=5	=5	=5	=5	=5	=5	=5	=5	=5	=5	=5	=5	=5
*	*	*	*4\right	*	*	*4\right	*	*	*4\right	*	*	*4\right	*	*	*	*	*	*	*	*	*2\right	*	*2\right	*2\right	*	*2\right	*
!LO:TX:a:t=tutti	!	!LO:HP:t=for	!	!LO:HP:t=for	!	!	!LO:HP:t=for	!	!	!LO:HP:t=fo	!	!	!LO:HP:t=for	!	!LO:HP:t=for	!	!LO:HP:t=for	!	!	!	!	!LO:HP:t=for	!	!	!LO:HP:t=for	!	!LO:HP:t=for
8D\	.	f	4D\	Quan-	f	4A\	Quan-	f	4f\	Quan-	f	4dd\	Quan-	f	8d\	f	8d/	f	16r	.	2A/	f	2A/	2dd\	f	2ff\	f
.	.	.	.	.	.	.	.	.	.	.	.	.	.	.	.	.	.	.	16aa\LL	.	.	.	.	.	.	.	.
8r	.	.	.	.	.	.	.	.	.	.	.	.	.	.	8r	.	8r	.	16ff\	.	.	.	.	.	.	.	.
.	.	.	.	.	.	.	.	.	.	.	.	.	.	.	.	.	.	.	16dd\JJ	.	.	.	.	.	.	.	.
!	!	!	!	!	!	!	!	!	!	!	!	!	!	!	!	!	!	!	!LO:TX:a:t=problem:znak powtórzenia grupy	!	!	!	!	!	!	!	!
8D\	.	.	4D\	-do	.	4A\	-do	.	4f\	-do	.	4dd\	-do	.	8f\	.	8a/	.	16r	.	.	.	.	.	.	.	.
.	.	.	.	.	.	.	.	.	.	.	.	.	.	.	.	.	.	.	16aa\LL	.	.	.	.	.	.	.	.
8r	.	.	.	.	.	.	.	.	.	.	.	.	.	.	8r	.	8r	.	16ff\	.	.	.	.	.	.	.	.
.	.	.	.	.	.	.	.	.	.	.	.	.	.	.	.	.	.	.	16dd\JJ	.	.	.	.	.	.	.	.
*	*	*	*	*	*	*	*	*	*	*	*	*	*	*	*	*	*	*	*	*	*4\right	*	*4\right	*	*	*	*
!	!	!	!	!	!	!	!	!	!	!	!	!	!	!	!LO:LB:g=original	!	!	!	!	!	!	!	!	!	!	!	!
8E\	6|	.	4E\	cor-	.	4A\	cor-	.	4g\	cor-	.	4cc#X\	cor-	.	8g\	.	8a/	.	16r	.	4A/	.	4A/	2cc#X\	.	2gg\	.
.	.	.	.	.	.	.	.	.	.	.	.	.	.	.	.	.	.	.	16gg\LL	.	.	.	.	.	.	.	.
8r	.	.	.	.	.	.	.	.	.	.	.	.	.	.	8r	.	8r	.	16ee\	.	.	.	.	.	.	.	.
.	.	.	.	.	.	.	.	.	.	.	.	.	.	.	.	.	.	.	16cc#X\JJ	.	.	.	.	.	.	.	.
!	!	!	!	!	!	!	!	!	!	!	!	!	!	!	!	!	!	!	!LO:TX:a:t=problem:znak powtórzenia grupy	!	!	!	!	!	!	!	!
8E\	.	.	4E\	-pus	.	4A\	-pus	.	4g\	-pus	.	4cc#\	-pus	.	8g\	.	8a/	.	16r	.	4r	.	4r	.	.	.	.
.	.	.	.	.	.	.	.	.	.	.	.	.	.	.	.	.	.	.	16gg\LL	.	.	.	.	.	.	.	.
8r	.	.	.	.	.	.	.	.	.	.	.	.	.	.	8r	.	8r	.	16ee\	.	.	.	.	.	.	.	.
.	.	.	.	.	.	.	.	.	.	.	.	.	.	.	.	.	.	.	16cc#X\JJ	.	.	.	.	.	.	.	.
=6	=6	=6	=6	=6	=6	=6	=6	=6	=6	=6	=6	=6	=6	=6	=6	=6	=6	=6	=6	=6	=6	=6	=6	=6	=6	=6	=6
!	!	!	!	!	!	!	!	!	!	!	!	!	!	!	!	!	!	!	!LO:LB:g=original	!LO:HP:t=for	!LO:TX:a:t=P:problem:pauzy 0r adnotacja "2"	!	!LO:TX:a:t=P:problem:pauzy 0r adnotacja "2"	!	!	!	!
8C#X/	.	.	4C#X/	mo-	.	4B-\	mo-	.	4g\	mo-	.	4ee\	mo-	.	8e\	.	8b-\	.	16r	f	1r	.	1r	2ee\	.	2gg\	.
.	.	.	.	.	.	.	.	.	.	.	.	.	.	.	.	.	.	.	16bb-\LL	.	.	.	.	.	.	.	.
8r	.	.	.	.	.	.	.	.	.	.	.	.	.	.	8r	.	8r	.	16gg\	.	.	.	.	.	.	.	.
.	.	.	.	.	.	.	.	.	.	.	.	.	.	.	.	.	.	.	16ee\JJ	.	.	.	.	.	.	.	.
!	!	!	!	!	!	!	!	!	!	!	!	!	!	!	!	!	!	!	!LO:TX:a:t=problem: znak powtórzenia grupy	!	!	!	!	!	!	!	!
8C#/	.	.	4C#/	-ri-	.	4B-\	-ri-	.	4g\	-ri-	.	4ee\	-ri-	.	8e\	.	8b-\	.	16r	.	.	.	.	.	.	.	.
.	.	.	.	.	.	.	.	.	.	.	.	.	.	.	.	.	.	.	16bb-\LL	.	.	.	.	.	.	.	.
8r	.	.	.	.	.	.	.	.	.	.	.	.	.	.	8r	.	8r	.	16gg\	.	.	.	.	.	.	.	.
.	.	.	.	.	.	.	.	.	.	.	.	.	.	.	.	.	.	.	16ee\JJ	.	.	.	.	.	.	.	.
8D/	.	.	4D/	-e-	.	4A\	-e-	.	4f\	-e-	.	4dd\	-e-	.	8f\	.	8a\	.	16r	.	.	.	.	2dd\	.	2ff\	.
.	.	.	.	.	.	.	.	.	.	.	.	.	.	.	.	.	.	.	16aa\LL	.	.	.	.	.	.	.	.
8r	.	.	.	.	.	.	.	.	.	.	.	.	.	.	8r	.	8r	.	16ff\	.	.	.	.	.	.	.	.
.	.	.	.	.	.	.	.	.	.	.	.	.	.	.	.	.	.	.	16dd\JJ	.	.	.	.	.	.	.	.
!	!	!	!	!	!	!	!	!	!	!	!	!	!	!	!	!	!	!	!LO:TX:a:t=problem: znak powtórzenia grupy	!	!	!	!	!	!	!	!
8D/	.	.	4D/	-tur	.	4A\	-tur	.	4f\	-tur	.	4dd\	-tur	.	8f\	.	8a\	.	16r	.	.	.	.	.	.	.	.
.	.	.	.	.	.	.	.	.	.	.	.	.	.	.	.	.	.	.	16aa\LL	.	.	.	.	.	.	.	.
8r	.	.	.	.	.	.	.	.	.	.	.	.	.	.	8r	.	8r	.	16ff\	.	.	.	.	.	.	.	.
.	.	.	.	.	.	.	.	.	.	.	.	.	.	.	.	.	.	.	16dd\JJ	.	.	.	.	.	.	.	.
=7	=7	=7	=7	=7	=7	=7	=7	=7	=7	=7	=7	=7	=7	=7	=7	=7	=7	=7	=7	=7	=7	=7	=7	=7	=7	=7	=7
!	!	!	!	!	!	!	!	!	!	!	!	!	!	!	!	!	!	!	!	!	!	!	!	!	!	!LO:TX:a:t=sic:s=2bb t=taka jest notatka ołówkiem	!
8Cn/	4# 2	.	4Cn\	fac	.	4d\	fac	.	4a\	fac	.	4ff#X\	fac	.	8f#X\	.	8a/	.	16r	.	1r	.	1r	2ff#X\	.	2gg\	.
.	.	.	.	.	.	.	.	.	.	.	.	.	.	.	.	.	.	.	16aa\LL	.	.	.	.	.	.	.	.
8r	.	.	.	.	.	.	.	.	.	.	.	.	.	.	8r	.	8r	.	16ff#X\	.	.	.	.	.	.	.	.
.	.	.	.	.	.	.	.	.	.	.	.	.	.	.	.	.	.	.	16dd\JJ	.	.	.	.	.	.	.	.
!	!	!	!	!	!	!	!	!	!	!	!	!	!	!	!	!	!	!	!LO:TX:a:t=problem: znak powtórzenia grupy	!	!	!	!	!	!	!	!
8C/	.	.	4c\	ut	.	4d\	ut	.	4a\	ut	.	4ff#\	ut	.	8f#\	.	8a/	.	16r	.	.	.	.	.	.	.	.
.	.	.	.	.	.	.	.	.	.	.	.	.	.	.	.	.	.	.	16aa\LL	.	.	.	.	.	.	.	.
8r	.	.	.	.	.	.	.	.	.	.	.	.	.	.	8r	.	8r	.	16ff#X\	.	.	.	.	.	.	.	.
.	.	.	.	.	.	.	.	.	.	.	.	.	.	.	.	.	.	.	16dd\JJ	.	.	.	.	.	.	.	.
8BB-/	6	.	4B-\	a-	.	4d\	a-	.	4g\	a-	.	4gg\	a-	.	8d\	.	8g/	.	16r	.	.	.	.	2gg\	.	2bb-\	.
.	.	.	.	.	.	.	.	.	.	.	.	.	.	.	.	.	.	.	16ddd\LL	.	.	.	.	.	.	.	.
8r	.	.	.	.	.	.	.	.	.	.	.	.	.	.	8r	.	8r	.	16bb-\	.	.	.	.	.	.	.	.
.	.	.	.	.	.	.	.	.	.	.	.	.	.	.	.	.	.	.	16gg\JJ	.	.	.	.	.	.	.	.
!	!	!	!	!	!	!	!	!	!	!	!	!	!	!	!	!	!	!	!LO:TX:a:t=problem: znak powtórzenia grupy	!	!	!	!	!	!	!	!
8BB-/	.	.	4B-\	-ni-	.	4d\	-ni-	.	4g\	-ni-	.	4gg\	-ni-	.	8d\	.	8g/	.	16r	.	.	.	.	.	.	.	.
.	.	.	.	.	.	.	.	.	.	.	.	.	.	.	.	.	.	.	16ddd\LL	.	.	.	.	.	.	.	.
8r	.	.	.	.	.	.	.	.	.	.	.	.	.	.	8r	.	8r	.	16bb-\	.	.	.	.	.	.	.	.
.	.	.	.	.	.	.	.	.	.	.	.	.	.	.	.	.	.	.	16gg\JJ	.	.	.	.	.	.	.	.
=8	=8	=8	=8	=8	=8	=8	=8	=8	=8	=8	=8	=8	=8	=8	=8	=8	=8	=8	=8	=8	=8	=8	=8	=8	=8	=8	=8
!LO:LB:g=original	!	!	!	!	!	!	!	!	!	!	!	!	!	!	!	!	!	!	!	!	!	!	!	!	!	!	!
8BB-/	4 2	.	4B-\	-mae	.	4c\	-mae	.	4g\	-mae	.	4ee\	-mae	.	8e\	.	8g/	.	16r	.	2c/	.	2g\	2ee\	.	2gg\	.
.	.	.	.	.	.	.	.	.	.	.	.	.	.	.	.	.	.	.	16gg\LL	.	.	.	.	.	.	.	.
8r	.	.	.	.	.	.	.	.	.	.	.	.	.	.	8r	.	8r	.	16ee\	.	.	.	.	.	.	.	.
.	.	.	.	.	.	.	.	.	.	.	.	.	.	.	.	.	.	.	16cc\JJ	.	.	.	.	.	.	.	.
!	!	!	!	!	!	!	!	!	!	!	!	!	!	!	!	!	!	!	!LO:TX:a:t=problem: znak powtórzenia grupy	!	!	!	!	!	!	!	!
8BB-/	.	.	4B-\	do-	.	4c\	do-	.	4g\	do-	.	4ee\	do-	.	8e\	.	8g/	.	16r	.	.	.	.	.	.	.	.
.	.	.	.	.	.	.	.	.	.	.	.	.	.	.	.	.	.	.	16gg\LL	.	.	.	.	.	.	.	.
8r	.	.	.	.	.	.	.	.	.	.	.	.	.	.	8r	.	8r	.	16ee\	.	.	.	.	.	.	.	.
.	.	.	.	.	.	.	.	.	.	.	.	.	.	.	.	.	.	.	16cc\JJ	.	.	.	.	.	.	.	.
8AA/	6	.	4A\	-ne-	.	4c\	-ne-	.	4f\	-ne-	.	4ffn\	-ne-	.	8c\	.	8f/	.	16r	.	2A/	.	2f\	2ffn\	.	2aa\	.
.	.	.	.	.	.	.	.	.	.	.	.	.	.	.	.	.	.	.	16ccc\LL	.	.	.	.	.	.	.	.
8r	.	.	.	.	.	.	.	.	.	.	.	.	.	.	8r	.	8r	.	16aa\	.	.	.	.	.	.	.	.
.	.	.	.	.	.	.	.	.	.	.	.	.	.	.	.	.	.	.	16ff\JJ	.	.	.	.	.	.	.	.
!	!	!	!	!	!	!	!	!	!	!	!	!	!	!	!	!	!	!	!LO:TX:a:t=problem: znak powtórzenia grupy	!	!	!	!	!	!	!	!
8AA/	.	.	4A\	-tur	.	4c\	-tur	.	4f\	-tur	.	4ff\	-tur	.	8c\	.	8f/	.	16r	.	.	.	.	.	.	.	.
.	.	.	.	.	.	.	.	.	.	.	.	.	.	.	.	.	.	.	16ccc\LL	.	.	.	.	.	.	.	.
8r	.	.	.	.	.	.	.	.	.	.	.	.	.	.	8r	.	8r	.	16aa\	.	.	.	.	.	.	.	.
.	.	.	.	.	.	.	.	.	.	.	.	.	.	.	.	.	.	.	16ff\JJ	.	.	.	.	.	.	.	.
=9	=9	=9	=9	=9	=9	=9	=9	=9	=9	=9	=9	=9	=9	=9	=9	=9	=9	=9	=9	=9	=9	=9	=9	=9	=9	=9	=9
!	!	!	!LO:LB:g=original	!	!	!	!	!	!	!	!	!	!	!	!	!	!LO:LB:g=original	!	!	!	!LO:TX:a:t=problem:wszystkie nuty mają laski z prawej strony	!	!	!	!	!	!
8AA/	6 5-	.	4A\	Pa-	.	4c\	pa-	.	4f\	pa-	.	4ee-X\	Pa-	.	8f\	.	8cc\	.	16r	.	2f\	.	2f\	1r	.	1r	.
.	.	.	.	.	.	.	.	.	.	.	.	.	.	.	.	.	.	.	16ccc\LL	.	.	.	.	.	.	.	.
8r	.	.	.	.	.	.	.	.	.	.	.	.	.	.	8r	.	8r	.	16aa\	.	.	.	.	.	.	.	.
.	.	.	.	.	.	.	.	.	.	.	.	.	.	.	.	.	.	.	16ee-X\JJ	.	.	.	.	.	.	.	.
!	!	!	!	!	!	!	!	!	!	!	!	!	!	!	!	!	!	!	!LO:TX:a:t=problem: znak powtórzenia grupy	!	!	!	!	!	!	!	!
8AA/	.	.	4A\	-ra-	.	4c\	-ra-	.	4f\	-ra-	.	4ee-\	-ra-	.	8f\	.	8cc\	.	16r	.	.	.	.	.	.	.	.
.	.	.	.	.	.	.	.	.	.	.	.	.	.	.	.	.	.	.	16ccc\LL	.	.	.	.	.	.	.	.
8r	.	.	.	.	.	.	.	.	.	.	.	.	.	.	8r	.	8r	.	16aa\	.	.	.	.	.	.	.	.
.	.	.	.	.	.	.	.	.	.	.	.	.	.	.	.	.	.	.	16ee-X\JJ	.	.	.	.	.	.	.	.
!	!	!	!	!	!	!LO:TX:a:t=problem:"disi" nad dźwiękami	!	!	!	!	!	!LO:LB:g=original	!	!	!	!	!	!	!LO:LB:g=original	!	!	!	!	!	!	!	!
8BB-/	.	.	4B-\	-di-	.	4B-\	-di-	.	4f\	-di-	.	4dd\	-di-	.	8f\	.	8dd\	.	16r	.	4f\	.	4f\	.	.	.	.
.	.	.	.	.	.	.	.	.	.	.	.	.	.	.	.	.	.	.	16bb-\LL	.	.	.	.	.	.	.	.
8r	.	.	.	.	.	.	.	.	.	.	.	.	.	.	8r	.	8r	.	16ff\	.	.	.	.	.	.	.	.
.	.	.	.	.	.	.	.	.	.	.	.	.	.	.	.	.	.	.	16dd\JJ	.	.	.	.	.	.	.	.
!	!	!	!	!	!	!	!	!	!	!	!	!	!	!	!	!	!	!	!LO:TX:a:t=problem: znak powtórzenia grupy	!	!	!	!	!	!	!	!
8BB-/	.	.	4B-\	-si	.	4B-\	-si	.	4f\	-si	.	4dd\	-si	.	8f\	.	8dd\	.	16r	.	4r	.	4r	.	.	.	.
.	.	.	.	.	.	.	.	.	.	.	.	.	.	.	.	.	.	.	16bb-\LL	.	.	.	.	.	.	.	.
8r	.	.	.	.	.	.	.	.	.	.	.	.	.	.	8r	.	8r	.	16ff\	.	.	.	.	.	.	.	.
.	.	.	.	.	.	.	.	.	.	.	.	.	.	.	.	.	.	.	16dd\JJ	.	.	.	.	.	.	.	.
=10	=10	=10	=10	=10	=10	=10	=10	=10	=10	=10	=10	=10	=10	=10	=10	=10	=10	=10	=10	=10	=10	=10	=10	=10	=10	=10	=10
!	!	!	!	!	!	!LO:LB:g=original	!	!	!LO:LB:g=original	!	!	!	!	!	!	!	!	!	!	!	!	!	!	!	!	!	!
8BBn/	3-	.	4Bn\	{Pa-	.	4d\	pa-	.	4a-X\	pa-	.	4ff\	pa-	.	8f\	.	8dd\	.	16r	.	2r	.	2r	2r	.	2r	.
.	.	.	.	.	.	.	.	.	.	.	.	.	.	.	.	.	.	.	16aa-X\LL	.	.	.	.	.	.	.	.
8r	.	.	.	.	.	.	.	.	.	.	.	.	.	.	8r	.	8r	.	16ff\	.	.	.	.	.	.	.	.
.	.	.	.	.	.	.	.	.	.	.	.	.	.	.	.	.	.	.	16dd\JJ	.	.	.	.	.	.	.	.
!	!	!	!	!	!	!	!	!	!	!	!	!	!	!	!	!	!	!	!LO:TX:a:t=problem: znak powtórzenia grupy	!	!	!	!	!	!	!	!
8BB/	.	.	4B\	-ra-	.	4d\	-ra-	.	4a-\	-ra-	.	4ff\	-ra-	.	8f\	.	8dd\	.	16r	.	.	.	.	.	.	.	.
.	.	.	.	.	.	.	.	.	.	.	.	.	.	.	.	.	.	.	16aa-X\LL	.	.	.	.	.	.	.	.
8r	.	.	.	.	.	.	.	.	.	.	.	.	.	.	8r	.	8r	.	16ff\	.	.	.	.	.	.	.	.
.	.	.	.	.	.	.	.	.	.	.	.	.	.	.	.	.	.	.	16dd\JJ	.	.	.	.	.	.	.	.
*	*	*	*	*	*	*	*	*	*	*	*	*	*	*	*	*	*	*	*	*	*4\right	*	*	*4\right	*	*4\right	*
!	!	!	!	!	!	!	!	!	!	!	!	!	!	!	!LO:LB:g=original	!	!	!	!	!	!	!	!	!	!	!	!
8C/	5 3	.	4c\	-di-	.	4c\	-di-	.	4g\	-di-	.	4ee\	-di-	.	8e\	.	8g/	.	16r	.	4c/	.	4g\	4ee\	.	4gg\	.
.	.	.	.	.	.	.	.	.	.	.	.	.	.	.	.	.	.	.	16gg\LL	.	.	.	.	.	.	.	.
8r	.	.	.	.	.	.	.	.	.	.	.	.	.	.	8r	.	8r	.	16ee\	.	.	.	.	.	.	.	.
.	.	.	.	.	.	.	.	.	.	.	.	.	.	.	.	.	.	.	16cc\JJ	.	.	.	.	.	.	.	.
8C/	6 4	.	4c\	-si}	.	4c\	-si	.	4an\	-si	.	4ff\	-si	.	8f\	.	8a/	.	16r	.	4f\	.	4a\	4ff\	.	4aa\	.
.	.	.	.	.	.	.	.	.	.	.	.	.	.	.	.	.	.	.	16aan\LL	.	.	.	.	.	.	.	.
8r	.	.	.	.	.	.	.	.	.	.	.	.	.	.	8r	.	8r	.	16ff\	.	.	.	.	.	.	.	.
.	.	.	.	.	.	.	.	.	.	.	.	.	.	.	.	.	.	.	16cc\JJ	.	.	.	.	.	.	.	.
=11	=11	=11	=11	=11	=11	=11	=11	=11	=11	=11	=11	=11	=11	=11	=11	=11	=11	=11	=11	=11	=11	=11	=11	=11	=11	=11	=11
!	!	!	!	!	!	!	!	!	!	!	!	!	!	!	!	!	!	!	!	!	!LO:LB:g=original	!	!LO:LB:g=original	!LO:LB:g=original	!	!	!
8C/	5 4	.	4c\	glo-	.	4c\	glo-	.	4g\	glo-	.	4ff\	glo-	.	8f\	.	8g/	.	16r	.	2c/	.	2g\	4ff\	.	2gg\	.
.	.	.	.	.	.	.	.	.	.	.	.	.	.	.	.	.	.	.	16gg\LL	.	.	.	.	.	.	.	.
8r	.	.	.	.	.	.	.	.	.	.	.	.	.	.	8r	.	8r	.	16ff\	.	.	.	.	.	.	.	.
.	.	.	.	.	.	.	.	.	.	.	.	.	.	.	.	.	.	.	16cc\JJ	.	.	.	.	.	.	.	.
8C/	5 3	.	4C/	-ri-	.	4c\	-ri-	.	4g\	-ri-	.	4ee\	-ri-	.	8e\	.	8g/	.	16r	.	.	.	.	4ee\	.	.	.
.	.	.	.	.	.	.	.	.	.	.	.	.	.	.	.	.	.	.	16gg\LL	.	.	.	.	.	.	.	.
8r	.	.	.	.	.	.	.	.	.	.	.	.	.	.	8r	.	8r	.	16ee\	.	.	.	.	.	.	.	.
.	.	.	.	.	.	.	.	.	.	.	.	.	.	.	.	.	.	.	16cc\JJ	.	.	.	.	.	.	.	.
8F\	.	.	4F\	-a	.	4c\	-a	.	4a\	-a	.	4ff\	-a	.	8f\	.	8a/	.	16r	.	4f\	.	4a\	4ff\	.	4aa\	.
.	.	.	.	.	.	.	.	.	.	.	.	.	.	.	.	.	.	.	16ccc\LL	.	.	.	.	.	.	.	.
8r	.	.	.	.	.	.	.	.	.	.	.	.	.	.	8r	.	8r	.	16aa\	.	.	.	.	.	.	.	.
.	.	.	.	.	.	.	.	.	.	.	.	.	.	.	.	.	.	.	16ff\JJ	.	.	.	.	.	.	.	.
!	!	!	!	!	!	!	!	!	!	!	!	!	!	!	!	!	!	!	!LO:TX:a:t=problem: znak powtórzenia grupy	!	!	!	!	!	!	!	!
8F\	.	p	4r	.	.	4r	.	.	4r	.	.	4r	.	.	8f\	p	8a/	p	16r	.	4r	.	4r	4r	.	4r	.
.	.	.	.	.	.	.	.	.	.	.	.	.	.	.	.	.	.	.	16ccc\LL	.	.	.	.	.	.	.	.
8r	.	.	.	.	.	.	.	.	.	.	.	.	.	.	8r	.	8r	.	16aa\	.	.	.	.	.	.	.	.
.	.	.	.	.	.	.	.	.	.	.	.	.	.	.	.	.	.	.	16ff\JJ	.	.	.	.	.	.	.	.
=12	=12	=12	=12	=12	=12	=12	=12	=12	=12	=12	=12	=12	=12	=12	=12	=12	=12	=12	=12	=12	=12	=12	=12	=12	=12	=12	=12
!	!	!	!	!	!	!	!	!	!	!	!	!	!	!	!	!	!	!	!	!	!	!	!	!	!	!LO:LB:g=original	!
!	!	!	!	!	!	!	!	!	!	!	!	!	!	!	!	!	!	!	!	!	!LO:TX:a:t=problem:pauzy 0r 1r adnotacja "3"	!	!LO:TX:a:t=problem:pauzy 0r 1r adnotacja "3"	!	!	!LO:TX:a:t=problem: w źródle o takt za dużo - usunięta przeze mnie cała nuta "a2"	!
8E-X\	2#	.	2r	.	.	2r	.	.	2r	.	.	2r	.	.	8f#X\	.	8a/	.	16r	.	1r	.	1r	2r	.	1r	.
.	.	.	.	.	.	.	.	.	.	.	.	.	.	.	.	.	.	.	16ccc\LL	.	.	.	.	.	.	.	.
8r	.	.	.	.	.	.	.	.	.	.	.	.	.	.	8r	.	8r	.	16aa\	.	.	.	.	.	.	.	.
.	.	.	.	.	.	.	.	.	.	.	.	.	.	.	.	.	.	.	16ff#X\JJ	.	.	.	.	.	.	.	.
!	!	!	!	!	!	!	!	!	!	!	!	!	!	!	!	!	!	!	!LO:TX:a:t=problem: znak powtórzenia grupy	!	!	!	!	!	!	!	!
8E-\	.	.	.	.	.	.	.	.	.	.	.	.	.	.	8f#\	.	8a/	.	16r	.	.	.	.	.	.	.	.
.	.	.	.	.	.	.	.	.	.	.	.	.	.	.	.	.	.	.	16ccc\LL	.	.	.	.	.	.	.	.
8r	.	.	.	.	.	.	.	.	.	.	.	.	.	.	8r	.	8r	.	16aa\	.	.	.	.	.	.	.	.
.	.	.	.	.	.	.	.	.	.	.	.	.	.	.	.	.	.	.	16ff#X\JJ	.	.	.	.	.	.	.	.
!	!	!	!	!	!	!	!	!	!	!	!	!	!	!	!	!	!	!	!LO:LB:g=original	!	!	!	!	!	!	!	!
8D\	3#	.	4D\	Quan-	.	4A\	Quan-	.	4f#X\	Quan-	.	4dd\	Quan-	.	8f#\	.	8a/	.	16r	.	.	.	.	2ff#X\	.	.	.
.	.	.	.	.	.	.	.	.	.	.	.	.	.	.	.	.	.	.	16ddd\LL	.	.	.	.	.	.	.	.
8r	.	.	.	.	.	.	.	.	.	.	.	.	.	.	8r	.	8r	.	16aa\	.	.	.	.	.	.	.	.
.	.	.	.	.	.	.	.	.	.	.	.	.	.	.	.	.	.	.	16ff#X\XJJ	.	.	.	.	.	.	.	.
!	!	!	!	!	!	!	!	!	!	!	!	!	!	!	!	!LO:HP:t=for	!	!LO:HP:t=for	!LO:TX:a:t=problem: znak powtórzenia grupy	!	!	!	!	!	!	!	!
8D\	.	.	4D\	-do	.	4A\	-do	.	4f#\	-do	.	4dd\	-do	.	8f#\	f	8a/	f	16r	p	.	.	.	.	.	.	.
.	.	.	.	.	.	.	.	.	.	.	.	.	.	.	.	.	.	.	16ddd\LL	.	.	.	.	.	.	.	.
!LO:TX:a:t=Tutti	!	!	!	!	!	!	!	!	!	!	!	!	!	!	!	!	!	!	!	!	!	!	!	!	!	!	!
8r	.	.	.	.	.	.	.	.	.	.	.	.	.	.	8r	.	8r	.	16aa\	.	.	.	.	.	.	.	.
.	.	.	.	.	.	.	.	.	.	.	.	.	.	.	.	.	.	.	16ff#X\JJ	.	.	.	.	.	.	.	.
=13	=13	=13	=13	=13	=13	=13	=13	=13	=13	=13	=13	=13	=13	=13	=13	=13	=13	=13	=13	=13	=13	=13	=13	=13	=13	=13	=13
!LO:LB:g=original	!	!LO:HP:t=for	!	!	!	!	!	!	!	!	!	!	!	!	!	!	!	!	!	!	!	!	!	!	!	!	!
8G\	.	f	4G\	cor-	.	4B-\	cor-	.	4g\	cor-	.	4dd\	cor-	.	8d\	.	8b-\	.	16r	.	1r	.	1r	2gg\	.	2bb-\	.
.	.	.	.	.	.	.	.	.	.	.	.	.	.	.	.	.	.	.	16ddd\LL	.	.	.	.	.	.	.	.
8r	.	.	.	.	.	.	.	.	.	.	.	.	.	.	8r	.	8r	.	16bb-\	.	.	.	.	.	.	.	.
.	.	.	.	.	.	.	.	.	.	.	.	.	.	.	.	.	.	.	16gg\JJ	.	.	.	.	.	.	.	.
!	!	!	!	!	!	!	!	!	!	!	!	!	!	!	!	!	!LO:LB:g=original	!	!LO:TX:a:t=problem: znak powtórzenia grupy	!	!	!	!	!	!	!	!
8G\	.	.	4G\	-pus	.	4B-\	-pus	.	4g\	-pus	.	4dd\	-pus	.	8d\	.	8b-\	.	16r	.	.	.	.	.	.	.	.
.	.	.	.	.	.	.	.	.	.	.	.	.	.	.	.	.	.	.	16ddd\LL	.	.	.	.	.	.	.	.
8r	.	.	.	.	.	.	.	.	.	.	.	.	.	.	8r	.	8r	.	16bb-\	.	.	.	.	.	.	.	.
.	.	.	.	.	.	.	.	.	.	.	.	.	.	.	.	.	.	.	16gg\JJ	.	.	.	.	.	.	.	.
!	!	!	!	!	!	!LO:TX:a:t=problem:"mori" nad dźwiękami	!	!	!LO:TX:a:t=sic:s=4f#	!	!	!LO:TX:a:t=sic:s=4f#	!	!	!	!	!	!	!	!	!	!	!	!	!	!	!
8A\	5	.	4A\	mo-	.	4d\	mo-	.	4f\	mo-	.	4cc\	mo-	.	8d\	.	8f#X/	.	16r	.	.	.	.	2cc\	.	2ff#X\	.
.	.	.	.	.	.	.	.	.	.	.	.	.	.	.	.	.	.	.	16ccc\LL	.	.	.	.	.	.	.	.
8r	.	.	.	.	.	.	.	.	.	.	.	.	.	.	8r	.	8r	.	16aa\	.	.	.	.	.	.	.	.
.	.	.	.	.	.	.	.	.	.	.	.	.	.	.	.	.	.	.	16ff#X\JJ	.	.	.	.	.	.	.	.
!	!	!	!	!	!	!	!	!	!LO:TX:a:t=sic:s=4f#	!	!	!LO:TX:a:t=sic:s=4f#	!	!	!	!	!	!	!LO:TX:a:t=problem: znak powtórzenia grupy	!	!	!	!	!	!	!	!
8A\	.	.	4A\	-ri-	.	4d\	-ri-	.	4f\	-ri-	.	4cc\	-ri-	.	8d\	.	8f#/	.	16r	.	.	.	.	.	.	.	.
.	.	.	.	.	.	.	.	.	.	.	.	.	.	.	.	.	.	.	16ccc\LL	.	.	.	.	.	.	.	.
8r	.	.	.	.	.	.	.	.	.	.	.	.	.	.	8r	.	8r	.	16aa\	.	.	.	.	.	.	.	.
.	.	.	.	.	.	.	.	.	.	.	.	.	.	.	.	.	.	.	16ff#X\JJ	.	.	.	.	.	.	.	.
=14	=14	=14	=14	=14	=14	=14	=14	=14	=14	=14	=14	=14	=14	=14	=14	=14	=14	=14	=14	=14	=14	=14	=14	=14	=14	=14	=14
!	!	!	!LO:LB:g=original	!	!	!	!	!	!	!	!	!	!	!	!	!	!	!	!	!LO:HP:t=for	!	!	!	!	!	!	!
8B-\	6	.	4B-\	-e-	.	4d\	-e-	.	4g\	-e-	.	4b-\	-e-	.	8d\	.	8g/	.	16r	f	1r	.	1r	2dd\	.	2gg\	.
.	.	.	.	.	.	.	.	.	.	.	.	.	.	.	.	.	.	.	16bb-\LL	.	.	.	.	.	.	.	.
8r	.	.	.	.	.	.	.	.	.	.	.	.	.	.	8r	.	8r	.	16gg\	.	.	.	.	.	.	.	.
.	.	.	.	.	.	.	.	.	.	.	.	.	.	.	.	.	.	.	16dd\JJ	.	.	.	.	.	.	.	.
!	!	!	!	!	!	!	!	!	!	!	!	!	!	!	!	!	!	!	!LO:TX:a:t=problem: znak powtórzenia grupy	!	!	!	!	!	!	!	!
8B-\	.	.	4B-\	-tur	.	4d\	-tur	.	4g\	-tur	.	4b-\	-tur	.	8d\	.	8g/	.	16r	.	.	.	.	.	.	.	.
.	.	.	.	.	.	.	.	.	.	.	.	.	.	.	.	.	.	.	16bb-\LL	.	.	.	.	.	.	.	.
8r	.	.	.	.	.	.	.	.	.	.	.	.	.	.	8r	.	8r	.	16gg\	.	.	.	.	.	.	.	.
.	.	.	.	.	.	.	.	.	.	.	.	.	.	.	.	.	.	.	16dd\JJ	.	.	.	.	.	.	.	.
8B-\	6|	.	4B-\	fac	.	4d\	fac	.	4g#X\	fac	.	4dd\	fac	.	8d\	.	8g#X/	.	16r	.	.	.	.	2dd\	.	2gg#X\	.
.	.	.	.	.	.	.	.	.	.	.	.	.	.	.	.	.	.	.	16ddd\LL	.	.	.	.	.	.	.	.
8r	.	.	.	.	.	.	.	.	.	.	.	.	.	.	8r	.	8r	.	16gg#X\	.	.	.	.	.	.	.	.
.	.	.	.	.	.	.	.	.	.	.	.	.	.	.	.	.	.	.	16dd\JJ	.	.	.	.	.	.	.	.
!	!	!	!	!	!	!	!	!	!	!	!	!	!	!	!	!	!	!	!LO:TX:a:t=problem: znak powtórzenia grupy	!	!	!	!	!	!	!	!
8B-\	.	.	4B-\	ut	.	4d\	ut	.	4g#\	ut	.	4dd\	ut	.	8d\	.	8g#/	.	16r	.	.	.	.	.	.	.	.
.	.	.	.	.	.	.	.	.	.	.	.	.	.	.	.	.	.	.	16ddd\LL	.	.	.	.	.	.	.	.
8r	.	.	.	.	.	.	.	.	.	.	.	.	.	.	8r	.	8r	.	16gg#X\	.	.	.	.	.	.	.	.
.	.	.	.	.	.	.	.	.	.	.	.	.	.	.	.	.	.	.	16dd\JJ	.	.	.	.	.	.	.	.
=15	=15	=15	=15	=15	=15	=15	=15	=15	=15	=15	=15	=15	=15	=15	=15	=15	=15	=15	=15	=15	=15	=15	=15	=15	=15	=15	=15
!	!	!	!	!	!	!	!	!	!	!	!	!LO:LB:g=original	!	!	!	!	!	!	!	!	!	!	!	!	!	!	!
8A\	#	.	4A\	a-	.	4e\	a-	.	4a\	a-	.	4cc#X\	a-	.	8e\	.	8a/	.	16r	.	4A/	.	4A/	2cc#X\	.	2aa\	.
.	.	.	.	.	.	.	.	.	.	.	.	.	.	.	.	.	.	.	16ccc#X\LL	.	.	.	.	.	.	.	.
8r	.	.	.	.	.	.	.	.	.	.	.	.	.	.	8r	.	8r	.	16aa\	.	.	.	.	.	.	.	.
.	.	.	.	.	.	.	.	.	.	.	.	.	.	.	.	.	.	.	16ee\JJ	.	.	.	.	.	.	.	.
!	!	!	!	!	!	!	!	!	!	!	!	!	!	!	!	!	!	!	!LO:TX:a:t=problem: znak powtórzenia grupy	!	!	!	!	!	!	!	!
8A\	.	.	4A\	-n-	.	4e\	-n-	.	4a\	-n-	.	4cc#\	-n-	.	8e\	.	8a/	.	16r	.	4A/	.	4A/	.	.	.	.
.	.	.	.	.	.	.	.	.	.	.	.	.	.	.	.	.	.	.	16ccc#X\LL	.	.	.	.	.	.	.	.
8r	.	.	.	.	.	.	.	.	.	.	.	.	.	.	8r	.	8r	.	16aa\	.	.	.	.	.	.	.	.
.	.	.	.	.	.	.	.	.	.	.	.	.	.	.	.	.	.	.	16ee\JJ	.	.	.	.	.	.	.	.
!	!	!	!	!	!	!	!	!	!	!	!	!	!	!	!LO:LB:g=original	!	!	!	!LO:LB:g=original	!	!	!	!	!	!	!	!
8G\	4# 3	.	4G\	-mae	.	4e\	-mae	.	4b-\	-mae	.	4cc#\	-mae	.	8e\	.	8b-/	.	16r	.	2r	.	2r	2r	.	2r	.
.	.	.	.	.	.	.	.	.	.	.	.	.	.	.	.	.	.	.	16bb-\LL	.	.	.	.	.	.	.	.
8r	.	.	.	.	.	.	.	.	.	.	.	.	.	.	8r	.	8r	.	16ee\	.	.	.	.	.	.	.	.
.	.	.	.	.	.	.	.	.	.	.	.	.	.	.	.	.	.	.	16cc#X\JJ	.	.	.	.	.	.	.	.
!	!	!	!	!	!	!	!	!	!	!	!	!	!	!	!	!	!	!	!LO:TX:a:t=problem: znak powtórzenia grupy	!	!	!	!	!	!	!	!
8G\	.	.	4G\	do-	.	4e\	do-	.	4b-\	do-	.	4cc#\	do-	.	8e\	.	8b-/	.	16r	.	.	.	.	.	.	.	.
.	.	.	.	.	.	.	.	.	.	.	.	.	.	.	.	.	.	.	16bb-\LL	.	.	.	.	.	.	.	.
8r	.	.	.	.	.	.	.	.	.	.	.	.	.	.	8r	.	8r	.	16ee\	.	.	.	.	.	.	.	.
.	.	.	.	.	.	.	.	.	.	.	.	.	.	.	.	.	.	.	16cc#X\JJ	.	.	.	.	.	.	.	.
=16	=16	=16	=16	=16	=16	=16	=16	=16	=16	=16	=16	=16	=16	=16	=16	=16	=16	=16	=16	=16	=16	=16	=16	=16	=16	=16	=16
!	!	!	!	!	!	!LO:LB:g=original	!	!	!LO:LB:g=original	!	!	!	!	!	!	!	!	!	!	!	!	!	!LO:TX:a:t="1"	!	!	!	!
*	*	*	*2\right	*	*	*2\right	*	*	*2\right	*	*	*2\right	*	*	*	*	*	*	*	*	*	*	*	*	*	*	*
8F\	6	.	2F\	-ne-	.	2d\	-ne-	.	2a\	-ne-	.	2dd\	-ne-	.	8d\	.	8a/	.	16r	.	1r	.	1r	1r	.	1r	.
.	.	.	.	.	.	.	.	.	.	.	.	.	.	.	.	.	.	.	16aa\LL	.	.	.	.	.	.	.	.
8r	.	.	.	.	.	.	.	.	.	.	.	.	.	.	8r	.	8r	.	16ff\	.	.	.	.	.	.	.	.
.	.	.	.	.	.	.	.	.	.	.	.	.	.	.	.	.	.	.	16dd\JJ	.	.	.	.	.	.	.	.
!	!	!	!	!	!	!	!	!	!	!	!	!	!	!	!	!	!	!	!LO:TX:a:t=problem: znak powtórzenia grupy	!	!	!	!	!	!	!	!
8F\	.	.	.	.	.	.	.	.	.	.	.	.	.	.	8d\	.	8a/	.	16r	.	.	.	.	.	.	.	.
.	.	.	.	.	.	.	.	.	.	.	.	.	.	.	.	.	.	.	16aa\LL	.	.	.	.	.	.	.	.
8r	.	.	.	.	.	.	.	.	.	.	.	.	.	.	8r	.	8r	.	16ff\	.	.	.	.	.	.	.	.
.	.	.	.	.	.	.	.	.	.	.	.	.	.	.	.	.	.	.	16dd\JJ	.	.	.	.	.	.	.	.
8E\	7 #	.	2E\	-tur	.	2Bn\	-tur	.	2g#X\	-tur	.	2dd\	-tur	.	8d\	.	8g#X/	.	16r	.	.	.	.	.	.	.	.
.	.	.	.	.	.	.	.	.	.	.	.	.	.	.	.	.	.	.	16ddd\LL	.	.	.	.	.	.	.	.
8r	.	.	.	.	.	.	.	.	.	.	.	.	.	.	8r	.	8r	.	16bbn\	.	.	.	.	.	.	.	.
.	.	.	.	.	.	.	.	.	.	.	.	.	.	.	.	.	.	.	16gg#X\JJ	.	.	.	.	.	.	.	.
!	!	!	!	!	!	!	!	!	!	!	!	!	!	!	!	!	!	!	!LO:TX:a:t=problem: znak powtórzenia grupy	!	!	!	!	!	!	!	!
8E\	.	.	.	.	.	.	.	.	.	.	.	.	.	.	8d\	.	8g#/	.	16r	.	.	.	.	.	.	.	.
.	.	.	.	.	.	.	.	.	.	.	.	.	.	.	.	.	.	.	16ddd\LL	.	.	.	.	.	.	.	.
8r	.	.	.	.	.	.	.	.	.	.	.	.	.	.	8r	.	8r	.	16bbn\	.	.	.	.	.	.	.	.
.	.	.	.	.	.	.	.	.	.	.	.	.	.	.	.	.	.	.	16gg#X\JJ	.	.	.	.	.	.	.	.
=17	=17	=17	=17	=17	=17	=17	=17	=17	=17	=17	=17	=17	=17	=17	=17	=17	=17	=17	=17	=17	=17	=17	=17	=17	=17	=17	=17
8A\	#	.	4A\	pa-	.	4e\	pa-	.	4a\	pa-	.	4cc#X\	pa-	.	8e\	.	8a/	.	16r	.	2A/	.	2A/	2cc#X\	.	2ee\	.
.	.	.	.	.	.	.	.	.	.	.	.	.	.	.	.	.	.	.	16ccc#X\LL	.	.	.	.	.	.	.	.
8r	.	.	.	.	.	.	.	.	.	.	.	.	.	.	8r	.	8r	.	16aa\	.	.	.	.	.	.	.	.
.	.	.	.	.	.	.	.	.	.	.	.	.	.	.	.	.	.	.	16ee\JJ	.	.	.	.	.	.	.	.
!	!	!	!	!	!	!	!	!	!	!	!	!	!	!	!	!	!	!	!LO:TX:a:t=problem: znak powtórzenia grupy	!	!	!	!	!	!	!	!
8G\	2	.	4G\	-ra-	.	4e\	-ra-	.	4a\	-ra-	.	4cc#\	-ra-	.	8e\	.	8a/	.	16r	.	.	.	.	.	.	.	.
.	.	.	.	.	.	.	.	.	.	.	.	.	.	.	.	.	.	.	16ccc#X\LL	.	.	.	.	.	.	.	.
8r	.	.	.	.	.	.	.	.	.	.	.	.	.	.	8r	.	8r	.	16aa\	.	.	.	.	.	.	.	.
.	.	.	.	.	.	.	.	.	.	.	.	.	.	.	.	.	.	.	16ee\JJ	.	.	.	.	.	.	.	.
!	!	!	!	!	!	!	!	!	!	!	!	!	!	!	!	!	!LO:LB:g=original	!	!	!	!	!	!	!	!	!	!
8F\	.	.	4F\	-di-	.	4d\	-di-	.	4a\	-di-	.	4dd\	-di-	.	8d\	.	8a/	.	16r	.	4f\	.	4a\	4cc#\	.	4ff\	.
.	.	.	.	.	.	.	.	.	.	.	.	.	.	.	.	.	.	.	16ddd\LL	.	.	.	.	.	.	.	.
8r	.	.	.	.	.	.	.	.	.	.	.	.	.	.	8r	.	8r	.	16aa\	.	.	.	.	.	.	.	.
.	.	.	.	.	.	.	.	.	.	.	.	.	.	.	.	.	.	.	16ff\JJ	.	.	.	.	.	.	.	.
8G\	.	.	4G\	-si	.	4g\	-si	.	4b-\	-si	.	4ee\	-si	.	8d\	.	8b-\	.	16r	.	4g\	.	4b-\	4ee\	.	4gg\	.
.	.	.	.	.	.	.	.	.	.	.	.	.	.	.	.	.	.	.	16bb-\LL	.	.	.	.	.	.	.	.
8r	.	.	.	.	.	.	.	.	.	.	.	.	.	.	8r	.	8r	.	16gg\	.	.	.	.	.	.	.	.
.	.	.	.	.	.	.	.	.	.	.	.	.	.	.	.	.	.	.	16ee\JJ	.	.	.	.	.	.	.	.
=18	=18	=18	=18	=18	=18	=18	=18	=18	=18	=18	=18	=18	=18	=18	=18	=18	=18	=18	=18	=18	=18	=18	=18	=18	=18	=18	=18
!LO:LB:g=original	!	!	!	!	!	!	!	!	!	!	!	!	!	!	!	!	!	!	!	!	!	!	!	!	!	!	!
8A\	6 7	.	4A\	glo-	.	4f\	glo-	.	4a\	glo-	.	4dd\	glo-	.	8d\	.	8f/	.	16r	.	4a\	.	4a\	4dd\	.	4ff\	.
.	.	.	.	.	.	.	.	.	.	.	.	.	.	.	.	.	.	.	16aa\LL	.	.	.	.	.	.	.	.
8r	.	.	.	.	.	.	.	.	.	.	.	.	.	.	8r	.	8r	.	16ff\	.	.	.	.	.	.	.	.
.	.	.	.	.	.	.	.	.	.	.	.	.	.	.	.	.	.	.	16dd\JJ	.	.	.	.	.	.	.	.
!	!	!	!	!	!	!	!	!	!	!	!	!	!	!	!	!	!	!	!LO:LB:g=original	!	!	!	!	!LO:TX:a:t=sic:s=4dd#	!	!	!
8AA/	5 #	.	4AA/	-ri-	.	4e\	-ri-	.	4a\	-ri-	.	4cc#X\	-ri-	.	8c#X\	.	8e/	.	16r	.	4A/	.	4a\	4cc\	.	4ee\	.
.	.	.	.	.	.	.	.	.	.	.	.	.	.	.	.	.	.	.	16gg\LL	.	.	.	.	.	.	.	.
8r	.	.	.	.	.	.	.	.	.	.	.	.	.	.	8r	.	8r	.	16ee\	.	.	.	.	.	.	.	.
.	.	.	.	.	.	.	.	.	.	.	.	.	.	.	.	.	.	.	16cc#X\JJ	.	.	.	.	.	.	.	.
8D\	.	.	4D\	-a	.	4d\	-a	.	4a\	-a	.	4dd\	-a	.	8A/	.	8f/	.	16r	.	4A/	.	4a\	4dd\	.	4dd\	.
.	.	.	.	.	.	.	.	.	.	.	.	.	.	.	.	.	.	.	16ff\LL	.	.	.	.	.	.	.	.
8r	.	.	.	.	.	.	.	.	.	.	.	.	.	.	8r	.	8r	.	16dd\	.	.	.	.	.	.	.	.
.	.	.	.	.	.	.	.	.	.	.	.	.	.	.	.	.	.	.	16a\JJ	.	.	.	.	.	.	.	.
!	!	!	!	!	!	!	!	!	!	!	!	!	!	!	!	!	!	!	!LO:TX:a:t=problem: znak powtórzenia grupy	!	!	!	!	!	!	!	!
8D\	.	.	4r	.	.	4r	.	.	4r	.	.	4r	.	.	8A/	.	8f/	.	16r	.	4r	.	4r	4r	.	4r	.
.	.	.	.	.	.	.	.	.	.	.	.	.	.	.	.	.	.	.	16ff\LL	.	.	.	.	.	.	.	.
8r	.	.	.	.	.	.	.	.	.	.	.	.	.	.	8r	.	8r	.	16dd\	.	.	.	.	.	.	.	.
.	.	.	.	.	.	.	.	.	.	.	.	.	.	.	.	.	.	.	16a\JJ	.	.	.	.	.	.	.	.
=19	=19	=19	=19	=19	=19	=19	=19	=19	=19	=19	=19	=19	=19	=19	=19	=19	=19	=19	=19	=19	=19	=19	=19	=19	=19	=19	=19
!	!	!	!LO:LB:g=original	!	!	!	!	!	!	!	!	!	!	!	!	!	!	!	!	!	!	!	!	!LO:TX:a:t=problem:pauzy 0r adnotacja "2"	!	!LO:TX:a:t=problem:pauzy 0r adnotacja "2"	!
8G\	6-_	.	4G\	fac	.	4e-X\	fac	.	4b-\	fac	.	4ee-X\	fac	.	8B-/	.	8e-X/	.	16r	.	1r	.	1r	1r	.	1r	.
.	.	.	.	.	.	.	.	.	.	.	.	.	.	.	.	.	.	.	16bb-\LL	.	.	.	.	.	.	.	.
8r	.	.	.	.	.	.	.	.	.	.	.	.	.	.	8r	.	8r	.	16gg\	.	.	.	.	.	.	.	.
.	.	.	.	.	.	.	.	.	.	.	.	.	.	.	.	.	.	.	16ee-X\JJ	.	.	.	.	.	.	.	.
!	!	!	!	!	!	!	!	!	!	!	!	!	!	!	!	!	!	!	!LO:TX:a:t=problem: znak powtórzenia grupy	!	!	!	!	!	!	!	!
8G\	.	.	4G\	ut	.	4e-\	ut	.	4b-\	ut	.	4ee-\	ut	.	8B-/	.	8e-/	.	16r	.	.	.	.	.	.	.	.
.	.	.	.	.	.	.	.	.	.	.	.	.	.	.	.	.	.	.	16bb-\LL	.	.	.	.	.	.	.	.
8r	.	.	.	.	.	.	.	.	.	.	.	.	.	.	8r	.	8r	.	16gg\	.	.	.	.	.	.	.	.
.	.	.	.	.	.	.	.	.	.	.	.	.	.	.	.	.	.	.	16ee-X\JJ	.	.	.	.	.	.	.	.
8G\	6 4# 3	.	4G\	a-	.	4en\	a-	.	4b-\	a-	.	4cc#X\	a-	.	8c#X/	.	8en/	.	16r	.	.	.	.	.	.	.	.
.	.	.	.	.	.	.	.	.	.	.	.	.	.	.	.	.	.	.	16bb-\LL	.	.	.	.	.	.	.	.
8r	.	.	.	.	.	.	.	.	.	.	.	.	.	.	8r	.	8r	.	16een\	.	.	.	.	.	.	.	.
.	.	.	.	.	.	.	.	.	.	.	.	.	.	.	.	.	.	.	16cc#X\JJ	.	.	.	.	.	.	.	.
8F\	6	.	4F\	-ni-	.	4d\	-ni-	.	4a\	-ni-	.	4dd\	-ni-	.	8d/	.	8f/	.	16r	.	.	.	.	.	.	.	.
.	.	.	.	.	.	.	.	.	.	.	.	.	.	.	.	.	.	.	16aa\LL	.	.	.	.	.	.	.	.
8r	.	.	.	.	.	.	.	.	.	.	.	.	.	.	8r	.	8r	.	16ff\	.	.	.	.	.	.	.	.
.	.	.	.	.	.	.	.	.	.	.	.	.	.	.	.	.	.	.	16dd\JJ	.	.	.	.	.	.	.	.
=20	=20	=20	=20	=20	=20	=20	=20	=20	=20	=20	=20	=20	=20	=20	=20	=20	=20	=20	=20	=20	=20	=20	=20	=20	=20	=20	=20
!	!	!	!	!	!	!	!	!	!	!	!	!LO:LB:g=original	!	!	!	!	!	!	!	!	!	!	!	!	!	!	!
8E\	7 #	.	4E\	-mae	.	4Bn\	-mae	.	4g#X\	-mae	.	4dd\	-mae	.	8Bn/	.	8g#X/	.	16r	.	2r	.	2r	1r	.	1r	.
.	.	.	.	.	.	.	.	.	.	.	.	.	.	.	.	.	.	.	16ddd\LL	.	.	.	.	.	.	.	.
8r	.	.	.	.	.	.	.	.	.	.	.	.	.	.	8r	.	8r	.	16gg#X\	.	.	.	.	.	.	.	.
.	.	.	.	.	.	.	.	.	.	.	.	.	.	.	.	.	.	.	16dd\JJ	.	.	.	.	.	.	.	.
!	!	!	!	!	!	!	!	!	!	!	!	!	!	!	!	!	!	!	!LO:TX:a:t=problem: znak powtórzenia grupy	!	!	!	!	!	!	!	!
8E\	.	.	4E\	do-	.	4B\	do-	.	4g#\	do-	.	4dd\	do-	.	8B/	.	8g#/	.	16r	.	.	.	.	.	.	.	.
.	.	.	.	.	.	.	.	.	.	.	.	.	.	.	.	.	.	.	16ddd\LL	.	.	.	.	.	.	.	.
8r	.	.	.	.	.	.	.	.	.	.	.	.	.	.	8r	.	8r	.	16gg#X\	.	.	.	.	.	.	.	.
.	.	.	.	.	.	.	.	.	.	.	.	.	.	.	.	.	.	.	16dd\JJ	.	.	.	.	.	.	.	.
!	!	!	!	!	!	!	!	!	!	!	!	!	!	!	!LO:LB:g=original	!	!	!	!	!	!	!	!	!	!	!	!
8A\	#	.	4A\	-ne-	.	4A\	-ne-	.	4e\	-ne-	.	4cc#X\	-ne-	.	8c#X/	.	8e/	.	16r	.	2A/	.	2A/	.	.	.	.
.	.	.	.	.	.	.	.	.	.	.	.	.	.	.	.	.	.	.	16ccc#X\LL	.	.	.	.	.	.	.	.
8r	.	.	.	.	.	.	.	.	.	.	.	.	.	.	8r	.	8r	.	16aa\	.	.	.	.	.	.	.	.
.	.	.	.	.	.	.	.	.	.	.	.	.	.	.	.	.	.	.	16ee\JJ	.	.	.	.	.	.	.	.
!	!	!	!	!	!	!	!	!	!	!	!	!	!	!	!	!	!	!	!LO:TX:a:t=problem: znak powtórzenia grupy	!	!	!	!	!	!	!	!
8A\	.	.	4A\	-tur	.	4A\	-tur	.	4e\	-tur	.	4cc#\	-tur	.	8c#/	.	8e/	.	16r	.	.	.	.	.	.	.	.
.	.	.	.	.	.	.	.	.	.	.	.	.	.	.	.	.	.	.	16ccc#X\LL	.	.	.	.	.	.	.	.
8r	.	.	.	.	.	.	.	.	.	.	.	.	.	.	8r	.	8r	.	16aa\	.	.	.	.	.	.	.	.
.	.	.	.	.	.	.	.	.	.	.	.	.	.	.	.	.	.	.	16ee\JJ	.	.	.	.	.	.	.	.
=21	=21	=21	=21	=21	=21	=21	=21	=21	=21	=21	=21	=21	=21	=21	=21	=21	=21	=21	=21	=21	=21	=21	=21	=21	=21	=21	=21
!	!	!	!	!	!	!	!	!	!	!	!	!	!	!	!LO:TX:a:t=sic:s=8c#	!	!	!	!LO:LB:g=original	!	!	!	!	!	!	!	!
8G\	2	.	4G\	pa-	.	4c#X\	pa-	.	4a\	pa-	.	4ee\	Pa-	.	8c/	.	8a/	.	16r	.	4A/	.	4A/	2cc#X\	.	2aa\	.
!	!	!	!	!	!	!	!	!	!	!	!	!	!	!	!	!	!	!	!LO:TX:a:t=sic:s=16ccc#	!	!	!	!	!	!	!	!
.	.	.	.	.	.	.	.	.	.	.	.	.	.	.	.	.	.	.	16ccc\LL	.	.	.	.	.	.	.	.
8r	.	.	.	.	.	.	.	.	.	.	.	.	.	.	8r	.	8r	.	16aa\	.	.	.	.	.	.	.	.
.	.	.	.	.	.	.	.	.	.	.	.	.	.	.	.	.	.	.	16ee\JJ	.	.	.	.	.	.	.	.
!	!	!	!	!	!	!	!	!	!	!	!	!	!	!	!	!	!	!	!LO:TX:a:t=problem: znak powtórzenia grupy	!	!	!	!	!	!	!	!
8G\	.	.	4G\	-ra-	.	4c#\	-ra-	.	4a\	-ra-	.	4ee\	-ra-	.	8e\	.	8a/	.	16r	.	4A/	.	4A/	.	.	.	.
!	!	!	!	!	!	!	!	!	!	!	!	!	!	!	!	!	!	!	!LO:TX:a:t=sic:s=16ccc#	!	!	!	!	!	!	!	!
.	.	.	.	.	.	.	.	.	.	.	.	.	.	.	.	.	.	.	16ccc\LL	.	.	.	.	.	.	.	.
8r	.	.	.	.	.	.	.	.	.	.	.	.	.	.	8r	.	8r	.	16aa\	.	.	.	.	.	.	.	.
.	.	.	.	.	.	.	.	.	.	.	.	.	.	.	.	.	.	.	16ee\JJ	.	.	.	.	.	.	.	.
!	!	!	!	!	!	!	!	!	!	!	!	!	!	!	!	!	!LO:LB:g=original	!	!	!	!	!	!	!	!	!LO:TX:a:t=problem: niewłaściwa nuta	!
8F\	6	.	4F\	-di-	.	4d\	-di-	.	4a\	-di-	.	4dd\	-di-	.	8d\	.	8a/	.	16r	.	4f\	.	4a\	2dd\	.	4bb-\	.
.	.	.	.	.	.	.	.	.	.	.	.	.	.	.	.	.	.	.	16ddd\LL	.	.	.	.	.	.	.	.
8r	.	.	.	.	.	.	.	.	.	.	.	.	.	.	8r	.	8r	.	16aa\	.	.	.	.	.	.	.	.
.	.	.	.	.	.	.	.	.	.	.	.	.	.	.	.	.	.	.	16ff\JJ	.	.	.	.	.	.	.	.
!	!	!	!	!	!	!	!	!	!	!	!	!	!	!	!	!	!	!	!LO:TX:a:t=problem: znak powtórzenia grupy	!	!	!	!	!	!	!	!
8G\	5	.	4G\	-si	.	4d\	-si	.	4b-\	-si	.	4gg\	-si	.	8d\	.	8b-\	.	16r	.	4g\	.	4b-\	.	.	4r	.
.	.	.	.	.	.	.	.	.	.	.	.	.	.	.	.	.	.	.	16ddd\LL	.	.	.	.	.	.	.	.
8r	.	.	.	.	.	.	.	.	.	.	.	.	.	.	8r	.	8r	.	16aa\	.	.	.	.	.	.	.	.
.	.	.	.	.	.	.	.	.	.	.	.	.	.	.	.	.	.	.	16ff\JJ	.	.	.	.	.	.	.	.
=22	=22	=22	=22	=22	=22	=22	=22	=22	=22	=22	=22	=22	=22	=22	=22	=22	=22	=22	=22	=22	=22	=22	=22	=22	=22	=22	=22
!	!	!	!	!	!	!LO:LB:g=original	!	!	!LO:LB:g=original	!	!	!	!	!	!	!	!	!	!	!	!LO:LB:g=original	!	!LO:LB:g=original	!	!	!	!
8A\	6 4	.	4A\	glo-	.	4d\	glo-	.	4a\	glo-	.	4ff\	glo-	.	8f\	.	8dd\	.	16r	.	4a\	.	4a\	4dd\	.	4ff\	.
.	.	.	.	.	.	.	.	.	.	.	.	.	.	.	.	.	.	.	16ddd\LL	.	.	.	.	.	.	.	.
8r	.	.	.	.	.	.	.	.	.	.	.	.	.	.	8r	.	8r	.	16aa\	.	.	.	.	.	.	.	.
.	.	.	.	.	.	.	.	.	.	.	.	.	.	.	.	.	.	.	16ff\JJ	.	.	.	.	.	.	.	.
!	!	!	!	!	!	!	!	!	!	!	!	!	!	!	!	!	!	!	!	!	!	!	!	!LO:TX:a:t=sic:s=4dd#	!	!	!
8AA/	5 #	.	4AA/	-ri-	.	4c#X\	-ri-	.	4a\	-ri-	.	4ee\	-ri-	.	8e\	.	8cc#X\	.	16r	.	4A/	.	4a\	4cc\	.	4ee\	.
.	.	.	.	.	.	.	.	.	.	.	.	.	.	.	.	.	.	.	16ccc#X\LL	.	.	.	.	.	.	.	.
8r	.	.	.	.	.	.	.	.	.	.	.	.	.	.	8r	.	8r	.	16aa\	.	.	.	.	.	.	.	.
.	.	.	.	.	.	.	.	.	.	.	.	.	.	.	.	.	.	.	16ee\JJ	.	.	.	.	.	.	.	.
8D\	.	.	4D\	-a	.	4d\	-a	.	4a\	-a	.	4dd\	-a	.	8f\	.	8dd\	.	16r	.	8A/	.	8a\	4dd\	.	4dd\	.
.	.	.	.	.	.	.	.	.	.	.	.	.	.	.	.	.	.	.	16ddd\LL	.	.	.	.	.	.	.	.
8r	.	.	.	.	.	.	.	.	.	.	.	.	.	.	8r	.	8r	.	16aa\	.	8r	.	8r	.	.	.	.
.	.	.	.	.	.	.	.	.	.	.	.	.	.	.	.	.	.	.	16ff\JJ	.	.	.	.	.	.	.	.
8D\	.	.	4r	.	.	4r	.	.	4r	.	.	4r	.	.	8f\	.	8dd\	.	16r	.	8A/	.	8A/	4r	.	4r	.
.	.	.	.	.	.	.	.	.	.	.	.	.	.	.	.	.	.	.	16dd\LL	.	.	.	.	.	.	.	.
8r	.	.	.	.	.	.	.	.	.	.	.	.	.	.	8r	.	8r	.	16a\	.	8r	.	8r	.	.	.	.
.	.	.	.	.	.	.	.	.	.	.	.	.	.	.	.	.	.	.	16f\JJ	.	.	.	.	.	.	.	.
=23	=23	=23	=23	=23	=23	=23	=23	=23	=23	=23	=23	=23	=23	=23	=23	=23	=23	=23	=23	=23	=23	=23	=23	=23	=23	=23	=23
!	!	!	!	!	!	!	!	!	!	!	!	!	!	!	!	!	!	!	!	!	!	!	!	!LO:TX:a:t=problem:pauzy 0r adnotacja "2"	!	!	!
*4\right	*	*	*	*	*	*	*	*	*	*	*	*	*	*	*4\right	*	*	*	*	*	*	*	*	*	*	*	*
4D\	.	.	4D\	pa-	.	4d\	pa-	.	4a\	pa-	.	4ff\	Pa-	.	4f\	.	4d/	.	4d/	.	4A/	.	4A/	1r	.	1r	.
4r	.	.	4d\	-ra-	.	4d\	-ra-	.	4a\	-ra-	.	4ff\	-ra-	.	4r	.	4r	.	4r	.	4r	.	4r	.	.	.	.
2r	.	.	4c#X\	-di-	.	4e\	-di-	.	4a\	-di-	.	4ee\	-di-	.	2r	.	2r	.	2r	.	2r	.	2r	.	.	.	.
.	.	.	4cn\	-si	.	4A\	-si	.	4a\	-si	.	4ee\	-si	.	.	.	.	.	.	.	.	.	.	.	.	.	.
=24	=24	=24	=24	=24	=24	=24	=24	=24	=24	=24	=24	=24	=24	=24	=24	=24	=24	=24	=24	=24	=24	=24	=24	=24	=24	=24	=24
!LO:TX:a:t="1"	!	!LO:LB:g=original	!	!	!	!	!	!	!	!	!	!	!	!	!LO:TX:a:t=problem:pauzy 0r	!	!	!	!	!	!	!	!	!	!	!	!
1r	.	.	4.B-\	glo-	.	4.d\	glo-	.	4a\	glo-	.	4.dd\	glo-	.	1r	.	1r	.	1r	.	1r	.	1r	1r	.	1r	.
*	*	*	*8\right	*	*	*8\right	*	*	*8\right	*	*	*	*	*	*	*	*	*	*	*	*	*	*	*	*	*	*
.	.	.	.	.	.	.	.	.	8g\L	-ri-	.	.	.	.	.	.	.	.	.	.	.	.	.	.	.	.	.
.	.	.	8B-\	-ri-	.	8e\	-ri-	.	8g#X\J	.	.	8dd\	-ri-	.	.	.	.	.	.	.	.	.	.	.	.	.	.
.	.	.	.	.	.	.	.	.	.	.	.	4qqdd/	.	.	.	.	.	.	.	.	.	.	.	.	.	.	.
.	.	.	2A\	-a	.	2e\	-a	.	2a\	-a	.	2cc#X\	-a	.	.	.	.	.	.	.	.	.	.	.	.	.	.
==	==	==	==	==	==	==	==	==	==	==	==	==	==	==	==	==	==	==	==	==	==	==	==	==	==	==	==
*-	*-	*-	*-	*-	*-	*-	*-	*-	*-	*-	*-	*-	*-	*-	*-	*-	*-	*-	*-	*-	*-	*-	*-	*-	*-	*-	*-
!!!system-decoration: s1,s2,s3,s4,s5,s6,s7,s8,s9,s10,s11,s12
